!! Isochronous pitch passage.
!! Bass-line.
!! From Mozart, Requiem, Hostias, measure 1ff.
!! Basses
!! 3/4 meter
**kern	**metpos
*M3/4	*M3/4
*tb4	*tb4
=1	=1
4E-	1
4G	2
4E-	2
=2	=2
4F	1
4BB-	2
4D	2
=3	=3
4E-	1
4G	2
4E-	2
=4	=4
4D	1
4B-	2
4D	2
=5	=5
4C	1
4c	2
4F	2
=6	=6
4B-	1
4BB-	2
4B-	2
=7	=7
4BB-	1
4B-	2
4A-	2
=8	=8
4AA-	1
4A-	2
4G	2
=9	=9
4F	1
4B-	2
4D	2
=10	=10
4E-	1
4EE-	2
4E-	2
=11	=11
4e-	1
4E-	2
4e-	2
=12	=12
4E-	1
4EE-	2
4E-	2
=13	=13
4e-	1
4E-	2
4e-	2
=14	=14
4d	1
4D	2
4C	2
=15	=15
4G	1
4GG	2
4G	2
=16	=16
4c	1
4C	2
4c	2
=17	=17
4A-	1
4AA-	2
4A-	2
=18	=18
4G	1
4E-	2
4A-	2
=19	=19
4An	1
4F	2
4B-	2
=20	=20
4D	1
4F	2
4F	2
=21	=21
4BB-	1
4d	2
4B-	2
=22	=22
4c	1
4F	2
4An	2
=23	=23
4B-	1
4d-	2
4B-	2
=24	=24
4An	1
4F	2
4AAn	2
=25	=25
4BB-	1
4BB-	2
4D-	2
=26	=26
4F	1
4FF	2
4F	2
=27	=27
4D-	1
4d-	2
4D-	2
=28	=28
4C	1
4c	2
4C	2
=29	=29
4D-	1
4F	2
4D-	2
=30	=30
4AA-	1
4A-	2
4AA-	2
=31	=31
4F	1
4A-	2
4F	2
=32	=32
4En	1
4C	2
4E	2
=33	=33
4F	1
4FF	2
4A-	2
=34	=34
4C	1
4c	2
4C	2
=35	=35
4BB-	1
4B-	2
4BB-	2
=36	=36
4B-	1
4BB-	2
4B-	2
=37	=37
4BB-	1
4B-	2
4BB-	2
=38	=38
4AAn	1
4An	2
4AA	2
=39	=39
4D	1
4d	2
4D	2
=40	=40
4C	1
4c	2
4C	2
=41	=41
4C-	1
4c-	2
4C-	2
=42	=42
4BB-	1
4B-	2
4r	2
=43	=43
4r	1
4r	2
4r	2
=44	=44
4E-	1
4G	2
4E-	2
=45	=45
4F	1
4BB-	2
4D	2
=46	=46
4E-	1
4G	2
4E-	2
=47	=47
4D	1
4F	2
4D	2
=48	=48
4E-	1
4C	2
4BBn	2
=49	=49
4C	1
4A-	2
4G	2
=50	=50
4F#	1
4FF#	2
4F#	2
=51	=51
4G	1
4E-	2
4D	2
=52	=52
4C#	1
4G	2
4C#	2
=53	=53
4D	1
4r	2
4r	2
=54	=54
*-	*-
